X: 812
P: Longways for as many as will
M: 3/2
L: 1/4
K: F
[|\
(Ac) (dc) (fA) | G2 E2 B2 | (Ac) (dc) fg | a4 g2 | (ag) (fc) (df) | d2 F2 A2 | (GA) (Bc) A2 | B3 c B2 |][| (BF) (GF) (GB) |

